X:1
T:Partition sans titre
C:Compositeur / Arrangeur
L:1/8
M:4/4
I:linebreak $
K:D
V:1 treble nm="Violon" snm="Vln."
V:1
"Bm" B2 Bc d2 e2 | fgfd B2 f2 | fgfd"A" c2 f2 |"Bm" fgfd B2 F2 |"Bm" B2 Bc d2 e2 | fgfd B2 ff | %6
 fgfe"A" dedc |1"Bm" B4 F4 :|2"Bm" B4 A4 |:"D" f6 f2 |"G" g4 ^g4 |"A" aa a4 b2 |"D" a2 g2 f2 e2 | %13
"A" aa a4 b2 |"D" a2 g2 f2 e2 |1 f4 d4 |"G" B4"D" A4 :|2"D" d3 A"G" BABc |"D" d4 c4 |] %19
